shader_type canvas_item;

uniform sampler2D noise : source_color;

void vertex() {
	// Called for every vertex the material is visible on.
}

void fragment() {
	
	// Called for every pixel the material is visible on.
	COLOR = texture(noise, (UV + sin(TIME * 0.1) + 1.0)/3.0);
}

//void light() {
//	// Called for every pixel for every light affecting the CanvasItem.
//	// Uncomment to replace the default light processing function with this one.
//}
